X:108
T:Maison de Glace
M:6/8
L:1/8
R:jig
K:D
D3 DEF | A3 AFA | B3 Bcd | cBA GFE |
D3 DEF | A3 AFA |1 B3 BAG | F3 E3 :|2 B3 Bcd | c6 |:
B3 Bcd | B3 Bcd | fed edc | dcA dcA |
B3 Bcd | B3 Bcd | fed edc |1 Adc d2A :|2 Adc dAF |]
